icons/fill-new-tool-edit-gear-setting-3.svg

<svg xmlns="http://www.w3.org/2000/svg" width="32px" height="32px" viewBox="0 0 32 32" version="1.1">
    <title>fill-new-tool-edit-gear-setting-3</title>
    <g id="fill-new-tool-edit-gear-setting-3" stroke-width="1" fill-rule="evenodd">
        <path d="M19.8846309,2.0259521 C22.284482,2.69193288 24.4341128,3.95927072 26.1609007,5.65561974 L25.9601379,10.2495117 L30.0435656,12.3764729 C30.3415298,13.5346516 30.5,14.7488195 30.5,16 C30.5,17.2511805 30.3415298,18.4653484 30.0435656,19.6235271 L25.9601379,21.7504883 L26.1599054,26.3453579 C24.4330474,28.0414513 22.2834249,29.3085464 19.8836328,29.9740479 L16,27.5009766 L12.1163672,29.9740479 C9.71657513,29.3085464 7.56695258,28.0414513 5.8400946,26.3453579 L6.03986213,21.7504883 L1.95643437,19.6235271 C1.65847025,18.4653484 1.5,17.2511805 1.5,16 C1.5,14.7488195 1.65847025,13.5346516 1.95643437,12.3764729 L6.03986213,10.2495117 L5.8400946,5.65464213 C7.56695258,3.95854865 9.71657513,2.69145364 12.1163672,2.0259521 L16,4.49902344 L19.8846309,2.0259521 Z M16,10.5 C12.9624339,10.5 10.5,12.9624339 10.5,16 C10.5,19.0375661 12.9624339,21.5 16,21.5 C19.0375661,21.5 21.5,19.0375661 21.5,16 C21.5,12.9624339 19.0375661,10.5 16,10.5 Z" id="&#24418;&#29366;" />
    </g>
</svg>

<svg xmlns="http://www.w3.org/2000/svg" viewBox="0 0 32 32"><path fill="currentColor" d="M19.885 2.026c2.4.666 4.55 1.933 6.276 3.63l-.2 4.594 4.083 2.126c.298 1.159.456 2.373.456 3.624s-.158 2.465-.456 3.624L25.96 21.75l.2 4.595a14.485 14.485 0 0 1-6.276 3.629L16 27.501l-3.884 2.473a14.485 14.485 0 0 1-6.276-3.629l.2-4.595-4.084-2.126A14.526 14.526 0 0 1 1.5 16c0-1.251.158-2.465.456-3.624L6.04 10.25l-.2-4.595a14.485 14.485 0 0 1 6.276-3.629L16 4.499zM16 10.5a5.5 5.5 0 1 0 0 11 5.5 5.5 0 0 0 0-11"/></svg>
